img/icon-dropbox.svg

<svg fill="none" height="24" viewBox="0 0 24 24" width="24" xmlns="http://www.w3.org/2000/svg"><path d="m7 3 5 3.5 5-3.5 5 3.5-5 3.5 5 3.5-5 3.5-5-3.5-5 3.5-5-3.5 5-3.5-5-3.5z" fill="#fff"/><path d="m7 18 5-3.5 5 3.5" stroke="#fff" stroke-opacity=".6" stroke-width="2"/></svg>

<svg width="24" height="24" viewBox="0 0 24 24" fill="none" xmlns="http://www.w3.org/2000/svg">
<path d="M7 3L12 6.5L17 3L22 6.5L17 10L22 13.5L17 17L12 13.5L7 17L2 13.5L7 10L2 6.5L7 3Z" fill="white"/>
<path d="M7 18L12 14.5L17 18" stroke="white" stroke-width="2" stroke-opacity="0.6"/>
</svg>
